packages/symbols/svgs/solid/file-image-solid.svg

<svg width="16" height="16" viewBox="0 0 16 16" fill="none" xmlns="http://www.w3.org/2000/svg">
<path fill-rule="evenodd" clip-rule="evenodd" d="M9 6H15V15C15 15.6 14.6 16 14 16H2C1.4 16 1 15.6 1 15V1C1 0.4 1.4 0 2 0L9 0V6ZM11 0V4H15L11 0ZM7.00023 8.99983C7.55247 8.99983 8.00015 8.55215 8.00015 7.99992C8.00015 7.44768 7.55247 7 7.00023 7C6.448 7 6.00032 7.44768 6.00032 7.99992C6.00032 8.55215 6.448 8.99983 7.00023 8.99983ZM11.9473 13.276L9.94749 9.2763C9.87099 9.12382 9.72251 9.02033 9.55302 9.00283C9.38404 8.98333 9.21655 9.05482 9.11006 9.18731L7.3962 11.3291L6.2778 10.5837C6.16381 10.5082 6.02332 10.4817 5.89083 10.5117C5.75734 10.5417 5.64185 10.6252 5.57186 10.7422L4.07198 13.242C3.97899 13.3965 3.97699 13.5884 4.06549 13.7459C4.15398 13.9029 4.32046 13.9994 4.50045 13.9994H11.4999C11.6733 13.9994 11.8338 13.9094 11.9253 13.7619C12.0168 13.6144 12.0243 13.4305 11.9473 13.276Z" fill="black"/>
</svg>

<svg width="16" height="16" viewBox="0 0 16 16" xmlns="http://www.w3.org/2000/svg"><path fill-rule="evenodd" clip-rule="evenodd" d="M9 6h6v9c0 .6-.4 1-1 1H2c-.6 0-1-.4-1-1V1c0-.6.4-1 1-1h7v6Zm2-6v4h4l-4-4ZM7 9a1 1 0 1 0 0-2 1 1 0 0 0 0 2Zm4.947 4.276-2-4a.5.5 0 0 0-.837-.089L7.396 11.33l-1.118-.745a.502.502 0 0 0-.706.158l-1.5 2.5A.5.5 0 0 0 4.5 14h7a.5.5 0 0 0 .447-.723Z"/></svg>
